korla/apps/symbolic/system-file-manager-symbolic.svg

<svg style="clip-rule:evenodd;fill-rule:evenodd;stroke-linejoin:round;stroke-miterlimit:2" version="1.1" viewBox="0 0 16 16" xmlns="http://www.w3.org/2000/svg">
 <path d="m1 6c-0.554 0-1 0.446-1 1v8c0 0.554 0.446 1 1 1h14c0.554 0 1-0.446 1-1v-8c0-0.554-0.446-1-1-1h-14zm0 1v8h14v-8h-14z" style="fill:rgb(223,223,223)"/>
 <path d="m6.25 10h3.5c0.139 0 0.25 0.111 0.25 0.25v0.5c0 0.139-0.112 0.25-0.25 0.25h-3.5c-0.139 0-0.25-0.111-0.25-0.25v-0.5c0-0.139 0.112-0.25 0.25-0.25z" style="fill:rgb(223,223,223)"/>
 <g transform="translate(0 .456576)">
  <path d="m3 3c-0.554 0-1 0.446-1 1v1h12v-1c0-0.554-0.446-1-1-1h-10z" style="fill-opacity:.5;fill:rgb(223,223,223)"/>
 </g>
 <g transform="translate(0 .456576)">
  <path d="m3 0c-0.554 0-1 0.446-1 1v2c0-0.554 0.446-1 1-1h10c0.554 0 1 0.446 1 1v-2c0-0.554-0.446-1-1-1h-10z" style="fill-opacity:.5;fill:rgb(223,223,223)"/>
 </g>
</svg>

<svg xmlns="http://www.w3.org/2000/svg" width="16" height="16" version="1.1">
 <path style="fill:#dfdfdf" d="M 3,0 C 2.446,0 2,0.446 2,1 V 3 C 2,2.446 2.446,2 3,2 H 13 C 13.554,2 14,2.446 14,3 V 1 C 14,0.446 13.554,0 13,0 Z M 3,3 C 2.446,3 2,3.446 2,4 V 5 H 14 V 4 C 14,3.446 13.554,3 13,3 Z M 1,6 C 0.446,6 0,6.446 0,7 V 15 C 0,15.554 0.446,16 1,16 H 15 C 15.554,16 16,15.554 16,15 V 7 C 16,6.446 15.554,6 15,6 Z M 6.25,10 H 9.75 C 9.889,10 10,10.111 10,10.25 V 10.75 C 10,10.889 9.888,11 9.75,11 H 6.25 C 6.111,11 6,10.889 6,10.75 V 10.25 C 6,10.111 6.112,10 6.25,10 Z"/>
</svg>
